X: 13639
T: Follies Sean Nos
R: jig
M: 6/8
K: Dmajor
|:A2 d d2 c|B2 c dcB|A2 d dcd|f2 e edB|
A2 d- dcA|B2 c d2 B|Add cde|1 fdd dcB:|2 fd/d/d d2 e||
|:f2 a g2 f|e2 d dcB|A2 d- dcd|
[1 f2 e- ecA|f2 a g2 f|e2 d c2 B|A2 d c2 d|edc dAe:|
[2 fe/e/e ecB|Ad/d/d Fd/d/d|Bd/d/d Gd/d/d|DFd cAe|fdc d3||

